svg/business/ad_rectangle_off_line.svg

<svg xmlns="http://www.w3.org/2000/svg" width="24" height="24" viewBox="0 0 24 24"><g fill="none" fill-rule="evenodd"><path d="M24,0 L24,24 L0,24 L0,0 L24,0 Z M12.5935,23.2578 L12.5819,23.2595 L12.5109,23.295 L12.4919,23.2987 L12.4767,23.295 L12.4057,23.2595 C12.3958,23.2564 12.387,23.259 12.3821,23.2649 L12.378,23.2758 L12.3609,23.7031 L12.3659,23.7235 L12.3769,23.7357 L12.4805,23.8097 L12.4953,23.8136 L12.5071,23.8097 L12.6107,23.7357 L12.6233,23.7197 L12.6267,23.7031 L12.6096,23.2758 C12.6076,23.2657 12.601,23.2593 12.5935,23.2578 Z M12.8584,23.1453 L12.8445,23.1473 L12.6598,23.2397 L12.6499,23.2499 L12.6472,23.2611 L12.6651,23.6906 L12.6699,23.7034 L12.6784,23.7105 L12.8793,23.8032 C12.8914,23.8069 12.9022,23.803 12.9078,23.7952 L12.9118,23.7812 L12.8777,23.1665 C12.8753,23.1546 12.8674,23.147 12.8584,23.1453 Z M12.143,23.1473 C12.1332,23.1424 12.1222,23.1453 12.1156,23.1526 L12.1099,23.1665 L12.0758,23.7812 C12.0751,23.7927 12.0828,23.8019 12.0926,23.8046 L12.1083,23.8032 L12.3092,23.7105 L12.3186,23.7024 L12.3225,23.6906 L12.3404,23.2611 L12.3372,23.2485 L12.3278,23.2397 L12.143,23.1473 Z"/><path fill="#09244B" d="M3.29289,3.29289 C3.65337923,2.93241 4.22060645,2.90468077 4.61290152,3.20970231 L4.70711,3.29289 L5.41421,4 L19,4 C20.597725,4 21.903664,5.24892392 21.9949075,6.82372764 L22,7 L22,17 C22,17.90935 21.5954347,18.724198 20.9564435,19.2743244 L20.8049,19.3965 L20.7688,19.3605 C21.0964,19.7533 21.0758,20.3384 20.7071,20.7071 C20.3466385,21.0675615 19.7793793,21.0952893 19.3871027,20.7902834 L19.2929,20.7071 L3.29289,4.70711 C2.90237,4.31658 2.90237,3.68342 3.29289,3.29289 Z M2.0763,6.32477 L4,8.24847 L4,17 C4,17.5523 4.44772,18 5,18 L13.7515,18 L15.7515,20 L5,20 C3.34315,20 2,18.6569 2,17 L2,7 C2,6.76782 2.02638,6.5418 2.0763,6.32477 Z M19,6 L7.41421,6 L9.42472,8.01051 C10.2544,8.09575 10.9537,8.69176 11.1595,9.51493 L11.2363,9.82208 L13.239,11.8247 C13.6962,10.752 14.7603,10 16,10 C16.3506,10 16.6872,10.0602 17,10.1707 L17,9 C17,8.44772 17.4477,8 18,8 C18.5523,8 19,8.44772 19,9 L19,15 C19,15.5523 18.5523,16 18,16 L17.41421,16 L19.3509,17.9367 C19.7301,17.7946 20,17.4288 20,17 L20,7 C20,6.44772 19.5523,6 19,6 Z M6.52568,10.7742 L9.75153,14 L7.78078,14 L7.47014,15.2425 C7.33619,15.7783 6.79326,16.1041 6.25746,15.9701 C5.72167,15.8362 5.39591,15.2933 5.52986,14.7575 L6.52568,10.7742 Z M10.3751,14.6236 L11.7257,15.9742 C11.1954,16.0973 10.6624,15.7727 10.5299,15.2425 L10.3751,14.6236 Z M16,12 C15.4477,12 15,12.4477 15,13 C15,13.51285 15.386027,13.9355092 15.8833761,13.9932725 L16,14 L17,14 L17,13 C17,12.4477 16.5523,12 16,12 Z"/></g></svg>

<svg xmlns="http://www.w3.org/2000/svg" width="24" height="24"><g fill="none" fill-rule="evenodd"><path d="M24 0v24H0V0zM12.594 23.258l-.012.002-.071.035-.02.004-.014-.004-.071-.036c-.01-.003-.019 0-.024.006l-.004.01-.017.428.005.02.01.013.104.074.015.004.012-.004.104-.074.012-.016.004-.017-.017-.427c-.002-.01-.009-.017-.016-.018m.264-.113-.014.002-.184.093-.01.01-.003.011.018.43.005.012.008.008.201.092c.012.004.023 0 .029-.008l.004-.014-.034-.614c-.003-.012-.01-.02-.02-.022m-.715.002a.023.023 0 0 0-.027.006l-.006.014-.034.614c0 .012.007.02.017.024l.015-.002.201-.093.01-.008.003-.011.018-.43-.003-.012-.01-.01z"/><path fill="#09244B" d="M3.293 3.293a1 1 0 0 1 1.32-.083l.094.083.707.707H19a3 3 0 0 1 2.995 2.824L22 7v10c0 .91-.405 1.724-1.044 2.274l-.151.122-.036-.036a1 1 0 0 1-1.382 1.43l-.094-.083-16-16a1 1 0 0 1 0-1.414M2.076 6.325 4 8.248V17a1 1 0 0 0 1 1h8.752l2 2H5a3 3 0 0 1-3-3V7c0-.232.026-.458.076-.675M19 6H7.414l2.01 2.01a2 2 0 0 1 1.736 1.505l.076.307 2.003 2.003A3 3 0 0 1 17 10.17V9a1 1 0 1 1 2 0v6a1 1 0 0 1-1 1h-.586l1.937 1.937A1 1 0 0 0 20 17V7a1 1 0 0 0-1-1M6.526 10.774 9.752 14H7.78l-.31 1.242a1 1 0 1 1-1.941-.485zm3.85 3.85 1.35 1.35a1 1 0 0 1-1.196-.732zM16 12a1 1 0 0 0-.117 1.993L16 14h1v-1a1 1 0 0 0-1-1"/></g></svg>
